assets/Crayon/Flat/crayon_flat.svg

<svg width="32" height="32" viewBox="0 0 32 32" fill="none" xmlns="http://www.w3.org/2000/svg">
<path d="M24.4853 2.56853C24.0948 2.178 23.4616 2.178 23.0711 2.56853L22.0104 3.62919L24.4853 7.51828L28.3744 9.99315L29.435 8.93249C29.8256 8.54196 29.8256 7.9088 29.435 7.51828L24.4853 2.56853Z" fill="#00D26A"/>
<path d="M5.0417 20.598L9.54659 22.9885L11.4057 26.962L10.8656 27.502C10.7557 27.6119 10.6218 27.6946 10.4744 27.7437L4.15157 29.849C3.61257 30.0286 3.01832 29.8883 2.61657 29.4866L2.5134 29.3834C2.11165 28.9817 1.97137 28.3874 2.15104 27.8484L4.25992 21.5289C4.30903 21.3817 4.3917 21.248 4.50139 21.1383L5.0417 20.598Z" fill="#00D26A"/>
<path d="M28.3762 9.9914L22.0122 3.62744L21.3051 4.33456L24.122 7.90855L27.6691 10.6985L28.3762 9.9914ZM26.962 11.4056L24.122 7.90855L20.598 5.04167L6.45587 19.1838L9.14918 22.6762L12.8198 25.5478L26.962 11.4056ZM12.1127 26.2549L9.14918 22.6762L5.74876 19.8909L5.04169 20.598L11.4056 26.962L12.1127 26.2549Z" fill="#C3EF3C"/>
<path d="M27.6691 10.6986L21.3052 4.33459L20.5981 5.0417L26.962 11.4057L27.6691 10.6986Z" fill="#321B41"/>
<path d="M18.1213 16.7071C15.3877 19.4408 12.5384 21.0237 11.7574 20.2427C10.9763 19.4616 12.5592 16.6124 15.2929 13.8787C18.0266 11.145 20.8758 9.56212 21.6569 10.3432C22.4379 11.1242 20.855 13.9735 18.1213 16.7071Z" fill="#321B41"/>
<path d="M6.45592 19.1838L12.8199 25.5478L12.1128 26.2549L5.74881 19.8909L6.45592 19.1838Z" fill="#321B41"/>
</svg>

<svg xmlns="http://www.w3.org/2000/svg" width="32" height="32" fill="none"><path fill="#00D26A" d="M24.485 2.569a1 1 0 0 0-1.414 0l-1.06 1.06 2.474 3.89 3.89 2.474 1.06-1.06a1 1 0 0 0 0-1.415l-4.95-4.95ZM5.042 20.598l4.505 2.39 1.859 3.974-.54.54a1 1 0 0 1-.392.242l-6.322 2.105a1.5 1.5 0 0 1-1.535-.362l-.104-.104a1.5 1.5 0 0 1-.362-1.535l2.109-6.32a1 1 0 0 1 .241-.39l.54-.54Z"/><path fill="#C3EF3C" d="m28.376 9.991-6.364-6.364-.707.708 2.817 3.574 3.547 2.79.707-.708Zm-1.414 1.415-2.84-3.497-3.524-2.867L6.456 19.184l2.693 3.492 3.67 2.872 14.143-14.142Zm-14.85 14.849L9.15 22.676l-3.4-2.785-.707.707 6.364 6.364.707-.707Z"/><path fill="#321B41" d="m27.67 10.699-6.365-6.364-.707.707 6.364 6.364.707-.707ZM18.121 16.707c-2.733 2.734-5.583 4.317-6.364 3.536-.78-.781.802-3.63 3.536-6.364s5.583-4.317 6.364-3.536c.78.781-.802 3.63-3.536 6.364ZM6.456 19.184l6.364 6.364-.707.707-6.364-6.364.707-.707Z"/></svg>
